X: 9605
T:McShane's Rambles
R:Jig
S:Lucy Farr, Galway (fiddle).
D:Lucy Farr - 'Hearth and Home'
Q:300
M:6/8
Z:Bernie Stocks
K:C
|: DEF G2G | ADE FGA | BAG c2A | BcB AGE | DEF G2G | ADE FGA | BAG cAG | {F}E2D D3 :|
|: dcB c2A | BAG ABA | GEE BEE | BAG ABc | dcB c2A | BAG ABA | GEE BEE | DED D3 :|
